assets/web/icons/switch-camera-solid.svg

<svg width="24" height="24" viewBox="0 0 24 24" fill="none" xmlns="http://www.w3.org/2000/svg">
<path d="M15.7929 2.29289C16.1834 1.90237 16.8166 1.90237 17.2071 2.29289L19.2071 4.29289C19.5976 4.68342 19.5976 5.31658 19.2071 5.70711L17.2071 7.70711C16.8166 8.09763 16.1834 8.09763 15.7929 7.70711C15.4024 7.31658 15.4024 6.68342 15.7929 6.29289L16.0858 6H5.5C4.39543 6 3.5 6.89543 3.5 8V15C3.5 15.5523 3.05228 16 2.5 16C1.94772 16 1.5 15.5523 1.5 15V8C1.5 5.79086 3.29086 4 5.5 4H16.0858L15.7929 3.70711C15.4024 3.31658 15.4024 2.68342 15.7929 2.29289Z" fill="currentColor"/>
<path d="M17.5 18H6.91421L7.20711 17.7071C7.59763 17.3166 7.59763 16.6834 7.20711 16.2929C6.81658 15.9024 6.18342 15.9024 5.79289 16.2929L3.79289 18.2929C3.40237 18.6834 3.40237 19.3166 3.79289 19.7071L5.79289 21.7071C6.18342 22.0976 6.81658 22.0976 7.20711 21.7071C7.59763 21.3166 7.59763 20.6834 7.20711 20.2929L6.91421 20H17.5C19.7091 20 21.5 18.2091 21.5 16V9C21.5 8.44772 21.0523 8 20.5 8C19.9477 8 19.5 8.44772 19.5 9V16C19.5 17.1046 18.6046 18 17.5 18Z" fill="currentColor"/>
<path d="M11.5 15C13.1569 15 14.5 13.6569 14.5 12C14.5 10.3431 13.1569 9 11.5 9C9.84315 9 8.5 10.3431 8.5 12C8.5 13.6569 9.84315 15 11.5 15Z" fill="currentColor"/>
</svg>

<svg xmlns="http://www.w3.org/2000/svg" width="24" height="24" fill="currentColor" viewBox="0 0 24 24">
  <path d="M15.793 2.293a1 1 0 0 1 1.414 0l2 2a1 1 0 0 1 0 1.414l-2 2a1 1 0 1 1-1.414-1.414L16.086 6H5.5a2 2 0 0 0-2 2v7a1 1 0 1 1-2 0V8a4 4 0 0 1 4-4h10.586l-.293-.293a1 1 0 0 1 0-1.414ZM17.5 18H6.914l.293-.293a1 1 0 1 0-1.414-1.414l-2 2a1 1 0 0 0 0 1.414l2 2a1 1 0 1 0 1.414-1.414L6.914 20H17.5a4 4 0 0 0 4-4V9a1 1 0 1 0-2 0v7a2 2 0 0 1-2 2Z"/>
  <path d="M11.5 15a3 3 0 1 0 0-6 3 3 0 0 0 0 6Z"/>
</svg>
